svg/trianglesSmallCenter1.svg

<?xml version="1.0" encoding="UTF-8" standalone="no"?>
<svg
   width="32"
   height="32"
   viewBox="0 0 8.467 8.467"
   version="1.1"
   id="svg1513"
   sodipodi:docname="trianglesSmallCenter1.svg"
   inkscape:version="1.2 (dc2aeda, 2022-05-15)"
   xmlns:inkscape="http://www.inkscape.org/namespaces/inkscape"
   xmlns:sodipodi="http://sodipodi.sourceforge.net/DTD/sodipodi-0.dtd"
   xmlns="http://www.w3.org/2000/svg"
   xmlns:svg="http://www.w3.org/2000/svg">
  <defs
     id="defs1517" />
  <sodipodi:namedview
     id="namedview1515"
     pagecolor="#505050"
     bordercolor="#ffffff"
     borderopacity="1"
     inkscape:showpageshadow="0"
     inkscape:pageopacity="0"
     inkscape:pagecheckerboard="1"
     inkscape:deskcolor="#505050"
     showgrid="true"
     inkscape:zoom="32.09375"
     inkscape:cx="15.828627"
     inkscape:cy="16"
     inkscape:window-width="1390"
     inkscape:window-height="1205"
     inkscape:window-x="0"
     inkscape:window-y="25"
     inkscape:window-maximized="0"
     inkscape:current-layer="svg1513">
    <inkscape:grid
       type="xygrid"
       id="grid2051"
       empspacing="4" />
  </sodipodi:namedview>
  <path
     style="fill:#000000;stroke:none;stroke-width:0.264594px;stroke-linecap:butt;stroke-linejoin:miter;stroke-opacity:1"
     d="M 4.2335,3.1751251 3.175125,4.2334999 V 3.1751251 H 4.2335"
     id="path677" />
  <path
     style="fill:#000000;stroke:none;stroke-width:0.264594px;stroke-linecap:butt;stroke-linejoin:miter;stroke-opacity:1"
     d="M 2.11675,3.1751249 3.175125,2.11675 V 3.1751249 H 2.1167501"
     id="path849" />
  <path
     style="fill:#000000;stroke:none;stroke-width:0.264594px;stroke-linecap:butt;stroke-linejoin:miter;stroke-opacity:1"
     d="M 6.3502502,3.1751251 5.2918751,4.2334999 V 3.1751251 h 1.058375"
     id="path851" />
  <path
     style="fill:#000000;stroke:none;stroke-width:0.264594px;stroke-linecap:butt;stroke-linejoin:miter;stroke-opacity:1"
     d="M 4.2335003,3.1751251 5.2918754,2.1167502 v 1.0583749 h -1.058375"
     id="path853" />
  <path
     style="fill:#000000;stroke:none;stroke-width:0.264594px;stroke-linecap:butt;stroke-linejoin:miter;stroke-opacity:1"
     d="M 4.2334998,5.2918751 3.1751251,6.3502501 V 5.2918751 H 4.2334997"
     id="path855" />
  <path
     style="fill:#000000;stroke:none;stroke-width:0.264594px;stroke-linecap:butt;stroke-linejoin:miter;stroke-opacity:1"
     d="M 2.1167506,5.2918751 3.1751254,4.2335003 V 5.2918751 H 2.1167506"
     id="path857" />
  <path
     style="fill:#000000;stroke:none;stroke-width:0.264594px;stroke-linecap:butt;stroke-linejoin:miter;stroke-opacity:1"
     d="M 6.3502498,5.2918751 5.2918751,6.3502501 V 5.2918751 H 6.3502498"
     id="path859" />
  <path
     style="fill:#000000;stroke:none;stroke-width:0.264594px;stroke-linecap:butt;stroke-linejoin:miter;stroke-opacity:1"
     d="M 4.2335007,5.2918751 5.2918754,4.2335003 V 5.2918751 H 4.2335007"
     id="path861" />
  <path
     style="fill:#000000;stroke:none;stroke-width:0.264594px;stroke-linecap:butt;stroke-linejoin:miter;stroke-opacity:1"
     d="M 5.2918746,4.2335005 4.2334999,3.1751255 v 1.058375 h 1.0583747"
     id="path863" />
  <path
     style="fill:#000000;stroke:none;stroke-width:0.264594px;stroke-linecap:butt;stroke-linejoin:miter;stroke-opacity:1"
     d="M 3.1751257,4.2335005 4.2335002,5.2918749 V 4.2335005 H 3.1751257"
     id="path865" />
</svg>

<svg width="32" height="32" viewBox="0 0 8.467 8.467" xmlns="http://www.w3.org/2000/svg"><path style="fill:#000;stroke:none;stroke-width:.264594px;stroke-linecap:butt;stroke-linejoin:miter;stroke-opacity:1" d="M4.234 3.175 3.175 4.233V3.175h1.059M2.117 3.175l1.058-1.058v1.058H2.117M6.35 3.175 5.292 4.233V3.175H6.35M4.234 3.175l1.058-1.058v1.058H4.234M4.233 5.292 3.175 6.35V5.292h1.058M2.117 5.292l1.058-1.058v1.058H2.117M6.35 5.292 5.292 6.35V5.292H6.35M4.234 5.292l1.058-1.058v1.058H4.234"/><path style="fill:#000;stroke:none;stroke-width:.264594px;stroke-linecap:butt;stroke-linejoin:miter;stroke-opacity:1" d="M5.292 4.234 4.233 3.175v1.059h1.059M3.175 4.234l1.059 1.058V4.234H3.175"/></svg>
